Obsidian-SemiLight/actions/22s/final_activity.svg

<svg viewBox="0 0 22 22" xmlns="http://www.w3.org/2000/svg"><path d="m11 3c-4.4182746 0-7.9999953 3.5817206-8 8 .0000047 4.418279 3.5817254 8 8 8 4.418275 0 7.999995-3.581721 8-8-.000005-4.4182794-3.581725-8-8-8zm0 1c1.660191.0004288 3.266188.5909096 4.53125 1.6660156v.0019532c.01246.019396.01803.0306272.03125.0507812l-4.5625 4.5625-4.5625-4.5625c.00817-.013106.0114602-.0202251.0195312-.0332031 1.2653686-1.0847726 2.8762718-1.6824551 4.5429688-1.6855469zm-5.28125 2.4375 4.5625 4.5625-4.5625 4.5625c-.1016033-.121695-.1674783-.187049-.2617188-.296875-.9427182-1.22233-1.4549653-2.721992-1.4570312-4.265625.0008918-1.6595193.5913443-3.264747 1.6660156-4.5292969.0210892-.0139303.0311042-.01876.0527344-.0332031zm10.5625 0c.0092.0038.014257.0040525.023438.0078125 1.090918 1.2670441 1.692295 2.8827144 1.695312 4.5546875-.00045 1.666377-.595348 3.277936-1.677734 4.544922-.01502.0077-.025116.008998-.041016.017578l-4.5625-4.5625zm-5.28125 5.28125 4.5625 4.5625c-.0048.01015-.006999.015311-.011719.025391-1.266299 1.089342-2.880401 1.689953-4.550781 1.693359-1.6730686-.001541-3.2902547-.602269-4.5585938-1.693359-.00173-.01032-.0021462-.014991-.0039062-.025391z" fill="#4d4d4d"/></svg>

<svg xmlns="http://www.w3.org/2000/svg" viewBox="0 0 22 22">
  <defs id="defs3051">
    <style type="text/css" id="current-color-scheme">
      .ColorScheme-Text {
        color:#4d4d4d;
      }
      </style>
  </defs>
 <path 
     style="fill:currentColor;fill-opacity:1;stroke:none" 
     d="M 11 3 C 6.5817254 3 3.0000047 6.5817206 3 11 C 3.0000047 15.418279 6.5817254 19 11 19 C 15.418275 19 18.999995 15.418279 19 11 C 18.999995 6.5817206 15.418275 3 11 3 z M 11 4 C 12.660191 4.0004288 14.266188 4.5909096 15.53125 5.6660156 L 15.53125 5.6679688 C 15.54371 5.6873648 15.54928 5.698596 15.5625 5.71875 L 11 10.28125 L 6.4375 5.71875 C 6.44567 5.705644 6.4489602 5.6985249 6.4570312 5.6855469 C 7.7223998 4.6007743 9.333303 4.0030918 11 4 z M 5.71875 6.4375 L 10.28125 11 L 5.71875 15.5625 C 5.6171467 15.440805 5.5512717 15.375451 5.4570312 15.265625 C 4.514313 14.043295 4.0020659 12.543633 4 11 C 4.0008918 9.3404807 4.5913443 7.735253 5.6660156 6.4707031 C 5.6871048 6.4567728 5.6971198 6.4519431 5.71875 6.4375 z M 16.28125 6.4375 C 16.29045 6.4413 16.295507 6.4415525 16.304688 6.4453125 C 17.395606 7.7123566 17.996983 9.3280269 18 11 C 17.99955 12.666377 17.404652 14.277936 16.322266 15.544922 C 16.307246 15.552622 16.29715 15.55392 16.28125 15.5625 L 11.71875 11 L 16.28125 6.4375 z M 11 11.71875 L 15.5625 16.28125 C 15.5577 16.2914 15.555501 16.296561 15.550781 16.306641 C 14.284482 17.395983 12.67038 17.996594 11 18 C 9.3269314 17.998459 7.7097453 17.397731 6.4414062 16.306641 C 6.4396762 16.296321 6.43926 16.29165 6.4375 16.28125 L 11 11.71875 z "
     class="ColorScheme-Text"
     />
</svg>
